X: 20345
T: John Brosnan's
R: polka
M: 2/4
K: Dmajor
|:D>E FA|Bc d2|BA FA|BA FA|
D>E FA|Bc d2|BA FE|D2 D2:|
|:d>c BA|Bc d2|BA FA|BA FA|
d>c BA|Bc d2|BA FE|D2 D2:|

